src/components/00-materials/images-raw/Padlock.svg

<svg width="96" height="96" viewBox="0 0 96 96" fill="none" xmlns="http://www.w3.org/2000/svg">
<path d="M71 44H25C22.7909 44 21 45.7909 21 48V76C21 78.2091 22.7909 80 25 80H71C73.2091 80 75 78.2091 75 76V48C75 45.7909 73.2091 44 71 44Z" stroke="#00008F" stroke-width="2" stroke-linecap="round" stroke-linejoin="round"/>
<path d="M28 44V35.5C28 30.0631 30.1598 24.8488 34.0043 21.0043C37.8488 17.1598 43.0631 15 48.5 15C51.1921 15 53.8578 15.5302 56.345 16.5605C58.8322 17.5907 61.0921 19.1007 62.9957 21.0043C64.8993 22.9079 66.4093 25.1678 67.4395 27.655C68.4698 30.1422 69 32.8079 69 35.5V44" stroke="#00008F" stroke-width="2" stroke-linecap="round" stroke-linejoin="round"/>
<path d="M48 65V58M34 44V35.5C34 31.6544 35.5277 27.9662 38.247 25.247C40.9662 22.5277 44.6544 21 48.5 21C50.4042 21 52.2897 21.3751 54.0489 22.1037C55.8081 22.8324 57.4066 23.9005 58.753 25.247C60.0995 26.5934 61.1676 28.1919 61.8963 29.9511C62.6249 31.7103 63 33.5958 63 35.5V44H34ZM21 74H75H21Z" stroke="#00008F" stroke-width="2" stroke-linecap="round" stroke-linejoin="round"/>
<path d="M48 58C49.6569 58 51 56.6569 51 55C51 53.3431 49.6569 52 48 52C46.3431 52 45 53.3431 45 55C45 56.6569 46.3431 58 48 58Z" stroke="#00008F" stroke-width="2" stroke-linecap="round" stroke-linejoin="round"/>
</svg>

<svg width="96" height="96" viewBox="0 0 96 96" fill="none" xmlns="http://www.w3.org/2000/svg"><path d="M71 44H25a4 4 0 00-4 4v28a4 4 0 004 4h46a4 4 0 004-4V48a4 4 0 00-4-4zM28 44v-8.5a20.5 20.5 0 0141 0V44" stroke="#00008F" stroke-width="2" stroke-linecap="round" stroke-linejoin="round"/><path d="M48 65v-7M34 44v-8.5a14.5 14.5 0 0129 0V44H34zM21 74h54-54zM48 58a3 3 0 100-6 3 3 0 000 6z" stroke="#00008F" stroke-width="2" stroke-linecap="round" stroke-linejoin="round"/></svg>
